TGraph/docu_c1.svg

<svg xmlns="http://www.w3.org/2000/svg" viewBox="0 0 1200 800" preserveAspectRatio="none" width="1200" height="800">
 <title>
  ROOT canvas
 </title>
 <rect x="0" y="0" width="1200" height="800" style="fill: rgb(222,186,135);"></rect>
 <g>
  <g transform="translate(120,80)">
   <title></title>
   <rect x="0" y="0" width="960" height="640" style="fill: rgb(204,199,171); stroke: black; stroke-width: 1;"></rect>
   <g>
    <path d="M0,0v640M92,0v640M184,0v640M276,0v640M367,0v640M459,0v640M551,0v640M643,0v640M735,0v640M827,0v640M919,0v640" style="stroke: black; stroke-width: 1; stroke-dasharray: 1,2;"></path>
    <path d="M0,586h960M0,519h960M0,453h960M0,386h960M0,319h960M0,253h960M0,186h960M0,120h960M0,53h960" style="stroke: black; stroke-width: 1; stroke-dasharray: 1,2;"></path>
   </g>
   <svg x="0" y="0" overflow="hidden" width="960" height="640" viewBox="0 0 960 640">
    <g>
     <path d="M0,586.67c2.58,-3.62,40.67,-57.22,45.93,-64.49s40.42,-55.18,45.93,-62.53s40.07,-52.5,45.93,-59.94s39.62,-49.21,45.93,-56.75s39.05,-45.37,45.93,-52.99s38.34,-41.05,45.93,-48.7s37.47,-36.32,45.93,-43.93s36.43,-31.29,45.93,-38.72s35.23,-26.1,45.93,-33.12s33.92,-20.89,45.93,-27.19s32.62,-15.83,45.93,-20.99s31.5,-11.03,45.93,-14.58s30.73,-6.75,45.93,-8.02s30.64,-1.91,45.93,-1.38s31.14,2.51,45.93,5.27s32.12,7.32,45.93,11.86s33.37,12.47,45.93,18.34s34.7,17.87,45.93,24.64s40.64,27.15,45.93,30.69" style="stroke: red; stroke-width: 4; fill: none;"></path>
     <path d="M-6,581v12h12v-12zM40,516v12h12v-12zM86,454v12h12v-12zM132,394v12h12v-12zM178,337v12h12v-12zM224,284v12h12v-12zM270,235v12h12v-12zM316,191v12h12v-12zM361,153v12h12v-12zM407,119v12h12v-12zM453,92v12h12v-12zM499,71v12h12v-12zM545,57v12h12v-12zM591,49v12h12v-12zM637,47v12h12v-12zM683,53v12h12v-12zM729,64v12h12v-12zM775,83v12h12v-12zM821,107v12h12v-12zM867,138v12h12v-12z" style="stroke: blue; fill: blue;"></path>
    </g>
   </svg>
   <g>
    <g transform="translate(0,640)">
     <line x1="0" y1="0" x2="960" y2="0" style="stroke: black; stroke-width: 1;"></line>
     <path d="M0,-24v24m23,-12v12m23,-12v12m23,-12v12m23,-24v24m23,-12v12m23,-12v12m23,-12v12m23,-24v24m23,-12v12m23,-12v12m23,-12v12m23,-24v24m23,-12v12m23,-12v12m22,-12v12m23,-24v24m23,-12v12m23,-12v12m23,-12v12m23,-24v24m23,-12v12m23,-12v12m23,-12v12m23,-24v24m23,-12v12m23,-12v12m23,-12v12m23,-24v24m23,-12v12m23,-12v12m23,-12v12m23,-24v24m23,-12v12m23,-12v12m23,-12v12m23,-24v24m23,-12v12m23,-12v12m23,-12v12m23,-24v24m23,-12v12" style="stroke: black; stroke-width: 1;"></path>
     <g font-family="Arial" font-size="28" space="preserve">
      <text fill="black" text-anchor="middle" dy=".8em" transform="translate(0,6)">
       0
      </text>
      <text fill="black" text-anchor="middle" dy=".8em" transform="translate(92,6)">
       0.2
      </text>
      <text fill="black" text-anchor="middle" dy=".8em" transform="translate(184,6)">
       0.4
      </text>
      <text fill="black" text-anchor="middle" dy=".8em" transform="translate(276,6)">
       0.6
      </text>
      <text fill="black" text-anchor="middle" dy=".8em" transform="translate(367,6)">
       0.8
      </text>
      <text fill="black" text-anchor="middle" dy=".8em" transform="translate(459,6)">
       1
      </text>
      <text fill="black" text-anchor="middle" dy=".8em" transform="translate(551,6)">
       1.2
      </text>
      <text fill="black" text-anchor="middle" dy=".8em" transform="translate(643,6)">
       1.4
      </text>
      <text fill="black" text-anchor="middle" dy=".8em" transform="translate(735,6)">
       1.6
      </text>
      <text fill="black" text-anchor="middle" dy=".8em" transform="translate(827,6)">
       1.8
      </text>
      <text fill="black" text-anchor="middle" dy=".8em" transform="translate(919,6)">
       2
      </text>
     </g>
     <g font-family="Arial" font-size="28" space="preserve" transform="translate(960,45)">
      <text fill="black" text-anchor="end" dy=".4em">
       X title
      </text>
     </g>
    </g>
    <g>
     <line x1="0" y1="0" x2="0" y2="640" style="stroke: black; stroke-width: 1;"></line>
     <path d="M18,639h-18m18,-13h-18m18,-14h-18m18,-13h-18m36,-13h-36m18,-14h-18m18,-13h-18m18,-13h-18m18,-13h-18m36,-14h-36m18,-13h-18m18,-13h-18m18,-14h-18m18,-13h-18m36,-13h-36m18,-14h-18m18,-13h-18m18,-13h-18m18,-14h-18m36,-13h-36m18,-13h-18m18,-14h-18m18,-13h-18m18,-13h-18m36,-14h-36m18,-13h-18m18,-13h-18m18,-14h-18m18,-13h-18m36,-13h-36m18,-13h-18m18,-14h-18m18,-13h-18m18,-13h-18m36,-14h-36m18,-13h-18m18,-13h-18m18,-14h-18m18,-13h-18m36,-13h-36m18,-14h-18m18,-13h-18m18,-13h-18m18,-14h-18m36,-13h-36m18,-13h-18m18,-14h-18m18,-13h-18" style="stroke: black; stroke-width: 1;"></path>
     <g font-family="Arial" font-size="28" space="preserve">
      <text fill="black" text-anchor="end" dy=".4em" transform="translate(-4,586)">
       2
      </text>
      <text fill="black" text-anchor="end" dy=".4em" transform="translate(-4,519)">
       3
      </text>
      <text fill="black" text-anchor="end" dy=".4em" transform="translate(-4,453)">
       4
      </text>
      <text fill="black" text-anchor="end" dy=".4em" transform="translate(-4,386)">
       5
      </text>
      <text fill="black" text-anchor="end" dy=".4em" transform="translate(-4,319)">
       6
      </text>
      <text fill="black" text-anchor="end" dy=".4em" transform="translate(-4,253)">
       7
      </text>
      <text fill="black" text-anchor="end" dy=".4em" transform="translate(-4,186)">
       8
      </text>
      <text fill="black" text-anchor="end" dy=".4em" transform="translate(-4,120)">
       9
      </text>
      <text fill="black" text-anchor="end" dy=".4em" transform="translate(-4,53)">
       10
      </text>
     </g>
     <g font-family="Arial" font-size="28" space="preserve" transform="translate(-67,0)">
      <text fill="black" text-anchor="end" dy=".4em" transform=" rotate(270)">
       Y title
      </text>
     </g>
    </g>
   </g>
  </g>
  <g transform="translate(399,4)" font-family="Arial" font-size="39" space="preserve">
   <path d="M0,0h403v52h-403z" style="fill: none;"></path>
   <text fill="black" text-anchor="middle" dy=".4em" transform="translate(202,26)">
    Option ACP example
   </text>
  </g>
 </g>
</svg>

<svg xmlns="http://www.w3.org/2000/svg" viewBox="0 0 1200 800" preserveAspectRatio="none" width="1200" height="800">
 <title>
  ROOT canvas
 </title>
 <rect x="0" y="0" width="1200" height="800" style="fill: rgb(222,186,135);"></rect>
 <g>
  <g transform="translate(120,80)">
   <title></title>
   <rect x="0" y="0" width="960" height="640" style="fill: rgb(204,199,171); stroke: black; stroke-width: 1;"></rect>
   <g>
    <path d="M0,0v640M92,0v640M184,0v640M276,0v640M367,0v640M459,0v640M551,0v640M643,0v640M735,0v640M827,0v640M919,0v640" style="stroke: black; stroke-width: 1; stroke-dasharray: 1,2;"></path>
    <path d="M0,586h960M0,519h960M0,453h960M0,386h960M0,319h960M0,253h960M0,186h960M0,120h960M0,53h960" style="stroke: black; stroke-width: 1; stroke-dasharray: 1,2;"></path>
   </g>
   <svg x="0" y="0" overflow="hidden" width="960" height="640" viewBox="0 0 960 640">
    <g>
     <path d="M0,586.67C2.58,583.05,40.67,529.44,45.93,522.17S86.35,466.99,91.87,459.64S131.94,407.15,137.8,399.71S177.42,350.5,183.73,342.96S222.78,297.59,229.67,289.97S268.01,248.92,275.6,241.27S313.07,204.95,321.53,197.34S357.96,166.05,367.46,158.62S402.7,132.52,413.4,125.5S447.32,104.6,459.33,98.31S491.95,82.47,505.26,77.32S536.76,66.29,551.2,62.74S581.92,55.99,597.13,54.72S627.77,52.81,643.06,53.33S674.2,55.84,689,58.6S721.11,65.92,734.93,70.46S768.3,82.93,780.86,88.81S815.56,106.68,826.79,113.45S867.43,140.6,872.73,144.14" style="stroke: red; stroke-width: 4; fill: none;"></path>
     <path d="M-6,581v12h12v-12zM40,516v12h12v-12zM86,454v12h12v-12zM132,394v12h12v-12zM178,337v12h12v-12zM224,284v12h12v-12zM270,235v12h12v-12zM316,191v12h12v-12zM361,153v12h12v-12zM407,119v12h12v-12zM453,92v12h12v-12zM499,71v12h12v-12zM545,57v12h12v-12zM591,49v12h12v-12zM637,47v12h12v-12zM683,53v12h12v-12zM729,64v12h12v-12zM775,83v12h12v-12zM821,107v12h12v-12zM867,138v12h12v-12z" style="stroke: blue; fill: blue;"></path>
    </g>
   </svg>
   <g>
    <g transform="translate(0,640)">
     <line x1="0" y1="0" x2="960" y2="0" style="stroke: black; stroke-width: 1;"></line>
     <path d="M0,-24v24m23,-12v12m23,-12v12m23,-12v12m23,-24v24m23,-12v12m23,-12v12m23,-12v12m23,-24v24m23,-12v12m23,-12v12m23,-12v12m23,-24v24m23,-12v12m23,-12v12m22,-12v12m23,-24v24m23,-12v12m23,-12v12m23,-12v12m23,-24v24m23,-12v12m23,-12v12m23,-12v12m23,-24v24m23,-12v12m23,-12v12m23,-12v12m23,-24v24m23,-12v12m23,-12v12m23,-12v12m23,-24v24m23,-12v12m23,-12v12m23,-12v12m23,-24v24m23,-12v12m23,-12v12m23,-12v12m23,-24v24m23,-12v12" style="stroke: black; stroke-width: 1;"></path>
     <g font-family="Arial" font-size="28" space="preserve">
      <text fill="black" text-anchor="middle" dy=".8em" transform="translate(0,6)">
       0
      </text>
      <text fill="black" text-anchor="middle" dy=".8em" transform="translate(92,6)">
       0.2
      </text>
      <text fill="black" text-anchor="middle" dy=".8em" transform="translate(184,6)">
       0.4
      </text>
      <text fill="black" text-anchor="middle" dy=".8em" transform="translate(276,6)">
       0.6
      </text>
      <text fill="black" text-anchor="middle" dy=".8em" transform="translate(367,6)">
       0.8
      </text>
      <text fill="black" text-anchor="middle" dy=".8em" transform="translate(459,6)">
       1
      </text>
      <text fill="black" text-anchor="middle" dy=".8em" transform="translate(551,6)">
       1.2
      </text>
      <text fill="black" text-anchor="middle" dy=".8em" transform="translate(643,6)">
       1.4
      </text>
      <text fill="black" text-anchor="middle" dy=".8em" transform="translate(735,6)">
       1.6
      </text>
      <text fill="black" text-anchor="middle" dy=".8em" transform="translate(827,6)">
       1.8
      </text>
      <text fill="black" text-anchor="middle" dy=".8em" transform="translate(919,6)">
       2
      </text>
     </g>
     <g font-family="Arial" font-size="28" space="preserve" transform="translate(960,45)">
      <text fill="black" text-anchor="end" dy=".4em">
       X title
      </text>
     </g>
    </g>
    <g>
     <line x1="0" y1="0" x2="0" y2="640" style="stroke: black; stroke-width: 1;"></line>
     <path d="M18,639h-18m18,-13h-18m18,-14h-18m18,-13h-18m36,-13h-36m18,-14h-18m18,-13h-18m18,-13h-18m18,-13h-18m36,-14h-36m18,-13h-18m18,-13h-18m18,-14h-18m18,-13h-18m36,-13h-36m18,-14h-18m18,-13h-18m18,-13h-18m18,-14h-18m36,-13h-36m18,-13h-18m18,-14h-18m18,-13h-18m18,-13h-18m36,-14h-36m18,-13h-18m18,-13h-18m18,-14h-18m18,-13h-18m36,-13h-36m18,-13h-18m18,-14h-18m18,-13h-18m18,-13h-18m36,-14h-36m18,-13h-18m18,-13h-18m18,-14h-18m18,-13h-18m36,-13h-36m18,-14h-18m18,-13h-18m18,-13h-18m18,-14h-18m36,-13h-36m18,-13h-18m18,-14h-18m18,-13h-18" style="stroke: black; stroke-width: 1;"></path>
     <g font-family="Arial" font-size="28" space="preserve">
      <text fill="black" text-anchor="end" dy=".4em" transform="translate(-4,586)">
       2
      </text>
      <text fill="black" text-anchor="end" dy=".4em" transform="translate(-4,519)">
       3
      </text>
      <text fill="black" text-anchor="end" dy=".4em" transform="translate(-4,453)">
       4
      </text>
      <text fill="black" text-anchor="end" dy=".4em" transform="translate(-4,386)">
       5
      </text>
      <text fill="black" text-anchor="end" dy=".4em" transform="translate(-4,319)">
       6
      </text>
      <text fill="black" text-anchor="end" dy=".4em" transform="translate(-4,253)">
       7
      </text>
      <text fill="black" text-anchor="end" dy=".4em" transform="translate(-4,186)">
       8
      </text>
      <text fill="black" text-anchor="end" dy=".4em" transform="translate(-4,120)">
       9
      </text>
      <text fill="black" text-anchor="end" dy=".4em" transform="translate(-4,53)">
       10
      </text>
     </g>
     <g font-family="Arial" font-size="28" space="preserve" transform="translate(-67,0)">
      <text fill="black" text-anchor="end" dy=".4em" transform=" rotate(270)">
       Y title
      </text>
     </g>
    </g>
   </g>
  </g>
  <g transform="translate(399,4)" font-family="Arial" font-size="39" space="preserve">
   <path d="M0,0h403v52h-403z" style="fill: none;"></path>
   <text fill="black" text-anchor="middle" dy=".4em" transform="translate(202,26)">
    Option ACP example
   </text>
  </g>
 </g>
</svg>
